X: 1
T: Knocknagow
R: jig
M: 6/8
L: 1/8
K: Ador
EAB ~c3|EAF GED|EAB cBc|dcd ecA|
EAB ~c3|EAF GAB|Aag edB|1 cAA A2G:|2 cAA AB/c/d||
|:eag aga|ede gfg|eaa age|def gdB|
eag aga|ede ~g3|age dcB|1 cAA AB/c/d:|2 cAA A^cd||
K:A
|:e2c dcB|cAF ~E3|~A3 cBc|~d3 Bcd|
edc dcB|cAF ~E3|Ace aed|cdB Acd:|
eaf ~=g3|eaf ecA|dfa ecA|dcd Bcd|
ecA fdB|~a^ga ecA|df^g aed|cdB Acd|
eaf =g2e|a2f ecA|dfa ecA|dcd Bcd|
ecA fdB|a^ga ecA|dfg aed|cdB A2=G||